src/next/cmd/32/grafinvert.svg

<svg height="32" viewBox="0 0 31.999999 31.999999" width="32" xmlns="http://www.w3.org/2000/svg" xmlns:xlink="http://www.w3.org/1999/xlink"><linearGradient id="a"><stop offset="0" stop-color="#2f2f2f"/><stop offset="1" stop-color="#4b4b4b"/></linearGradient><linearGradient id="b"><stop offset="0" stop-color="#c7cdd7"/><stop offset="1" stop-color="#fff"/></linearGradient><linearGradient id="c" gradientUnits="userSpaceOnUse" x1="53.95331312468" x2="67.98317121468" xlink:href="#b" y1="-17.40544785032" y2="127.73101321453"/><linearGradient id="d" gradientUnits="userSpaceOnUse" x1="50.64769471916" x2="20.5437808042" xlink:href="#a" y1="23.72822090646" y2="94.88292775509"/><linearGradient id="e" gradientUnits="userSpaceOnUse" x1="25.90398657292" x2="91.00503616188" xlink:href="#b" y1="58.37138274146" y2="58.37138274146"/><linearGradient id="f" gradientUnits="userSpaceOnUse" x1="37.18869693937" x2="101.83820392366" xlink:href="#a" y1="69.58146669646" y2="69.58146669646"/><linearGradient id="g" gradientUnits="userSpaceOnUse" x1="52.85403753957" x2="68.43896523957" xlink:href="#a" y1="-26.41412921043" y2="134.80925863992"/><g transform="matrix(.171875 0 0 .171875 5.000225 5.022246)"><path d="m-11.637671-11.765786h151.27272v151.27272h-151.27272z" fill="url(#g)"/><path d="m-5.81949-5.947605h139.63635v139.63635h-139.63635z" fill="url(#c)"/><path d="m133.81686-5.9476047c-4.13812 5.50647104-139.6363495 139.6363547-139.6363495 139.6363547v-139.6363548z" fill="url(#d)" fill-rule="evenodd"/><g transform="matrix(1.2257748 0 0 1.2257748 -14.420484 -14.420484)"><path d="m91.005037 37.324726c-16.759932 16.792183-37.145885 37.014662-53.816341 53.514055a37.967111 37.967111 0 0 0 26.682402 10.999419 37.967111 37.967111 0 0 0 37.967102-37.967102 37.967111 37.967111 0 0 0 -10.833163-26.546372z" fill="url(#f)"/><path d="m63.871098 25.903987a37.967111 37.967111 0 0 0 -37.967111 37.967111 37.967111 37.967111 0 0 0 11.284709 26.967683c16.670456-16.499393 37.056409-36.721872 53.816341-53.514055a37.967111 37.967111 0 0 0 -27.133939-11.420739z" fill="url(#e)"/></g></g></svg>

<?xml version="1.0" encoding="UTF-8" standalone="no"?>
<!-- Created with Inkscape (http://www.inkscape.org/) -->

<svg
   xmlns:dc="http://purl.org/dc/elements/1.1/"
   xmlns:cc="http://creativecommons.org/ns#"
   xmlns:rdf="http://www.w3.org/1999/02/22-rdf-syntax-ns#"
   xmlns:svg="http://www.w3.org/2000/svg"
   xmlns="http://www.w3.org/2000/svg"
   xmlns:xlink="http://www.w3.org/1999/xlink"
   xmlns:sodipodi="http://sodipodi.sourceforge.net/DTD/sodipodi-0.dtd"
   xmlns:inkscape="http://www.inkscape.org/namespaces/inkscape"
   id="svg2"
   version="1.1"
   inkscape:version="0.92.4 (unknown)"
   width="32"
   height="32"
   viewBox="0 0 31.999999 31.999999"
   sodipodi:docname="grafinvert.svg"
   inkscape:export-filename="/home/rizmut/Dokumen/Rizmut/Github/libreoffice-style-karasa-jaga/build/next/cmd/32/grafinvert.png"
   inkscape:export-xdpi="96"
   inkscape:export-ydpi="96">
  <metadata
     id="metadata8">
    <rdf:RDF>
      <cc:Work
         rdf:about="">
        <dc:format>image/svg+xml</dc:format>
        <dc:type
           rdf:resource="http://purl.org/dc/dcmitype/StillImage" />
        <dc:title></dc:title>
      </cc:Work>
    </rdf:RDF>
  </metadata>
  <defs
     id="defs6">
    <linearGradient
       inkscape:collect="always"
       id="linearGradient1010">
      <stop
         style="stop-color:#2f2f2f;stop-opacity:1;"
         offset="0"
         id="stop1006" />
      <stop
         style="stop-color:#4b4b4b;stop-opacity:1"
         offset="1"
         id="stop1008" />
    </linearGradient>
    <linearGradient
       id="linearGradient3895">
      <stop
         style="stop-color:#382a23;stop-opacity:1;"
         offset="0"
         id="stop3897" />
      <stop
         style="stop-color:#753919;stop-opacity:0;"
         offset="1"
         id="stop3899" />
    </linearGradient>
    <radialGradient
       id="XMLID_4_"
       cx="48"
       cy="-0.2148"
       r="55.147999"
       gradientTransform="matrix(0.9792,0,0,0.9725,133.0002,20.8762)"
       gradientUnits="userSpaceOnUse">
      <stop
         offset="0"
         style="stop-color:#fff718;stop-opacity:1;"
         id="stop3082" />
      <stop
         offset="1"
         style="stop-color:#e77100;stop-opacity:1;"
         id="stop3090" />
    </radialGradient>
    <linearGradient
       id="linearGradient3344">
      <stop
         id="stop3346"
         offset="0"
         style="stop-color:#fdff63;stop-opacity:1;" />
      <stop
         id="stop3348"
         offset="1"
         style="stop-color:#ffffff;stop-opacity:0;" />
    </linearGradient>
    <linearGradient
       y2="0"
       x2="28"
       y1="57.5"
       x1="28"
       gradientUnits="userSpaceOnUse"
       id="XMLID_2_">
      <stop
         id="stop12"
         style="stop-color:#FFEA00"
         offset="0" />
      <stop
         id="stop14"
         style="stop-color:#FFCC00"
         offset="1" />
    </linearGradient>
    <linearGradient
       id="linearGradient3919"
       gradientUnits="userSpaceOnUse"
       x1="28"
       y1="57.5"
       x2="28"
       y2="0">
      <stop
         offset="0"
         style="stop-color:#FFEA00"
         id="stop3921" />
      <stop
         offset="1"
         style="stop-color:#dea200;stop-opacity:1"
         id="stop3923" />
    </linearGradient>
    <radialGradient
       id="radialGradient15384"
       cx="48"
       cy="-0.2148"
       r="55.147999"
       gradientTransform="matrix(0.9792,0,0,0.9725,133.0002,20.8762)"
       gradientUnits="userSpaceOnUse">
      <stop
         offset="0"
         style="stop-color:#fff718;stop-opacity:1;"
         id="stop15386" />
      <stop
         offset="1"
         style="stop-color:#e77100;stop-opacity:1;"
         id="stop15388" />
    </radialGradient>
    <linearGradient
       id="linearGradient18668"
       gradientUnits="userSpaceOnUse"
       x1="28"
       y1="57.5"
       x2="28"
       y2="0">
      <stop
         offset="0"
         style="stop-color:#fffccf;stop-opacity:1;"
         id="stop18670" />
      <stop
         offset="1"
         style="stop-color:white;stop-opacity:0;"
         id="stop18672" />
    </linearGradient>
    <linearGradient
       id="linearGradient3825">
      <stop
         style="stop-color:#ffffff;stop-opacity:0;"
         offset="0"
         id="stop3827" />
      <stop
         id="stop3833"
         offset="0.5"
         style="stop-color:#ffffff;stop-opacity:0.18705036;" />
      <stop
         style="stop-color:#ffffff;stop-opacity:1;"
         offset="1"
         id="stop3829" />
    </linearGradient>
    <linearGradient
       id="linearGradient3711"
       gradientUnits="userSpaceOnUse"
       x1="-84.002403"
       y1="-383.9971"
       x2="-23.516129"
       y2="-383.9975"
       gradientTransform="rotate(90,-90.0007,50.0022)">
      <stop
         offset="0"
         style="stop-color:white;stop-opacity:1;"
         id="stop3713" />
      <stop
         offset="1"
         style="stop-color:white;stop-opacity:0"
         id="stop3715" />
    </linearGradient>
    <linearGradient
       id="XMLID_9_"
       gradientUnits="userSpaceOnUse"
       x1="94.343803"
       y1="102.3447"
       x2="86.535599"
       y2="94.536598">
      <stop
         offset="0"
         style="stop-color:#FFFFFF"
         id="stop62" />
      <stop
         offset="1"
         style="stop-color:#555753"
         id="stop64" />
    </linearGradient>
    <linearGradient
       y2="95.292999"
       x2="87.292999"
       y1="103"
       x1="95"
       gradientUnits="userSpaceOnUse"
       id="linearGradient4175">
      <stop
         id="stop4177"
         style="stop-color:#000000;stop-opacity:1"
         offset="0" />
      <stop
         id="stop4179"
         style="stop-color:#393B38"
         offset="1" />
    </linearGradient>
    <linearGradient
       id="XMLID_12_"
       gradientUnits="userSpaceOnUse"
       x1="96"
       y1="104"
       x2="88.000198"
       y2="96.000198">
      <stop
         offset="0"
         style="stop-color:#888A85"
         id="stop83" />
      <stop
         offset="0.0072"
         style="stop-color:#8C8E89"
         id="stop85" />
      <stop
         offset="0.0673"
         style="stop-color:#ABACA9"
         id="stop87" />
      <stop
         offset="0.1347"
         style="stop-color:#C5C6C4"
         id="stop89" />
      <stop
         offset="0.2115"
         style="stop-color:#DBDBDA"
         id="stop91" />
      <stop
         offset="0.3012"
         style="stop-color:#EBEBEB"
         id="stop93" />
      <stop
         offset="0.4122"
         style="stop-color:#F7F7F6"
         id="stop95" />
      <stop
         offset="0.5679"
         style="stop-color:#FDFDFD"
         id="stop97" />
      <stop
         offset="1"
         style="stop-color:#FFFFFF"
         id="stop99" />
    </linearGradient>
    <radialGradient
       id="XMLID_8_"
       cx="102"
       cy="112.3047"
       r="139.55859"
       gradientUnits="userSpaceOnUse">
      <stop
         offset="0"
         style="stop-color:#535557"
         id="stop37" />
      <stop
         offset="0.11366145"
         style="stop-color:#898A8C"
         id="stop41" />
      <stop
         offset="0.20296688"
         style="stop-color:#ECECEC"
         id="stop47" />
      <stop
         offset="0.2363"
         style="stop-color:#FAFAFA"
         id="stop49" />
      <stop
         offset="0.2722"
         style="stop-color:#FFFFFF"
         id="stop51" />
      <stop
         offset="0.5313"
         style="stop-color:#FAFAFA"
         id="stop53" />
      <stop
         offset="0.8449"
         style="stop-color:#EBECEC"
         id="stop55" />
      <stop
         offset="1"
         style="stop-color:#E1E2E3"
         id="stop57" />
    </radialGradient>
    <radialGradient
       id="XMLID_7_"
       cx="102"
       cy="112.3047"
       r="139.5585"
       gradientUnits="userSpaceOnUse">
      <stop
         offset="0"
         style="stop-color:#00537D"
         id="stop16" />
      <stop
         offset="0.0151"
         style="stop-color:#186389"
         id="stop18" />
      <stop
         offset="0.0558"
         style="stop-color:#558CA8"
         id="stop20" />
      <stop
         offset="0.0964"
         style="stop-color:#89AFC3"
         id="stop22" />
      <stop
         offset="0.1357"
         style="stop-color:#B3CCD8"
         id="stop24" />
      <stop
         offset="0.1737"
         style="stop-color:#D4E2E9"
         id="stop26" />
      <stop
         offset="0.2099"
         style="stop-color:#ECF2F5"
         id="stop28" />
      <stop
         offset="0.2435"
         style="stop-color:#FAFCFD"
         id="stop30" />
      <stop
         offset="0.2722"
         style="stop-color:#FFFFFF"
         id="stop32" />
    </radialGradient>
    <linearGradient
       id="linearGradient3323">
      <stop
         style="stop-color:#c7cdd7;stop-opacity:1;"
         offset="0"
         id="stop3325" />
      <stop
         style="stop-color:#ffffff;stop-opacity:1;"
         offset="1"
         id="stop3327" />
    </linearGradient>
    <linearGradient
       inkscape:collect="always"
       xlink:href="#linearGradient3323"
       id="linearGradient1000"
       x1="53.620972"
       y1="-20.129028"
       x2="68.120972"
       y2="129.87097"
       gradientUnits="userSpaceOnUse"
       gradientTransform="matrix(0.96757642,0,0,0.96757642,2.0709249,2.0709249)" />
    <linearGradient
       inkscape:collect="always"
       xlink:href="#linearGradient1010"
       id="linearGradient1012"
       x1="50.204582"
       y1="22.383034"
       x2="19.091883"
       y2="95.922142"
       gradientUnits="userSpaceOnUse"
       gradientTransform="matrix(0.96757642,0,0,0.96757642,2.0709249,2.0709249)" />
    <linearGradient
       inkscape:collect="always"
       xlink:href="#linearGradient3323"
       id="linearGradient1029"
       x1="24.621094"
       y1="58.185547"
       x2="91.921875"
       y2="58.185547"
       gradientUnits="userSpaceOnUse"
       gradientTransform="matrix(0.96731492,0,0,0.96731492,2.0876346,2.0876346)" />
    <linearGradient
       inkscape:collect="always"
       xlink:href="#linearGradient1010"
       id="linearGradient1038"
       x1="36.287109"
       y1="69.774414"
       x2="103.12109"
       y2="69.774414"
       gradientUnits="userSpaceOnUse"
       gradientTransform="matrix(0.96731492,0,0,0.96731492,2.0876346,2.0876346)" />
    <linearGradient
       inkscape:collect="always"
       xlink:href="#linearGradient1010"
       id="linearGradient1042"
       gradientUnits="userSpaceOnUse"
       x1="53.620972"
       y1="-20.129028"
       x2="68.120972"
       y2="129.87097"
       gradientTransform="matrix(1.0748226,0,0,1.0748226,-4.778995,-4.778995)" />
  </defs>
  <sodipodi:namedview
     pagecolor="#ffffff"
     bordercolor="#666666"
     borderopacity="1"
     objecttolerance="10"
     gridtolerance="10"
     guidetolerance="10"
     inkscape:pageopacity="0"
     inkscape:pageshadow="2"
     inkscape:window-width="1366"
     inkscape:window-height="691"
     id="namedview4"
     showgrid="true"
     inkscape:snap-page="false"
     inkscape:zoom="7.9999999"
     inkscape:cx="14.566776"
     inkscape:cy="9.5829986"
     inkscape:window-x="0"
     inkscape:window-y="26"
     inkscape:window-maximized="1"
     inkscape:current-layer="svg2"
     inkscape:snap-global="false">
    <inkscape:grid
       type="xygrid"
       id="grid900"
       spacingx="0.49999998"
       spacingy="0.49999998"
       empspacing="2" />
  </sodipodi:namedview>
  <g
     id="g903"
     transform="matrix(0.171875,0,0,0.171875,5.0002246,5.0222457)">
    <rect
       style="opacity:1;fill:url(#linearGradient1042);fill-opacity:1;stroke:none;stroke-width:1.88561249;stroke-linecap:round;stroke-linejoin:bevel;stroke-miterlimit:4;stroke-dasharray:none;stroke-dashoffset:0;stroke-opacity:1"
       id="rect1040"
       width="151.27272"
       height="151.27272"
       x="-11.637671"
       y="-11.765786"
       rx="0" />
    <rect
       rx="0"
       y="-5.9476047"
       x="-5.8194895"
       height="139.63635"
       width="139.63635"
       id="rect981"
       style="opacity:1;fill:url(#linearGradient1000);fill-opacity:1;stroke:none;stroke-width:1.69746542;stroke-linecap:round;stroke-linejoin:bevel;stroke-miterlimit:4;stroke-dasharray:none;stroke-dashoffset:0;stroke-opacity:1" />
    <path
       inkscape:connector-curvature="0"
       id="path1004"
       d="M 133.81686,-5.9476047 C 129.67874,-0.44113366 -5.8194895,133.68875 -5.8194895,133.68875 l 0,-139.6363548 z"
       style="fill:url(#linearGradient1012);fill-opacity:1;fill-rule:evenodd;stroke:none;stroke-width:0.96757638px;stroke-linecap:butt;stroke-linejoin:miter;stroke-opacity:1"
       sodipodi:nodetypes="cccc" />
    <g
       id="g937"
       transform="matrix(1.2257748,0,0,1.2257748,-14.420484,-14.420484)">
      <path
         style="opacity:1;fill:url(#linearGradient1038);fill-opacity:1;stroke:none;stroke-width:1.92938137;stroke-linecap:round;stroke-linejoin:bevel;stroke-miterlimit:4;stroke-dasharray:none;stroke-dashoffset:0;stroke-opacity:1"
         d="M 91.005037,37.324726 C 74.245105,54.116909 53.859152,74.339388 37.188696,90.838781 A 37.967111,37.967111 0 0 0 63.871098,101.8382 37.967111,37.967111 0 0 0 101.8382,63.871098 37.967111,37.967111 0 0 0 91.005037,37.324726 Z"
         id="path1014"
         inkscape:connector-curvature="0" />
      <path
         style="opacity:1;fill:url(#linearGradient1029);fill-opacity:1;stroke:none;stroke-width:1.92938137;stroke-linecap:round;stroke-linejoin:bevel;stroke-miterlimit:4;stroke-dasharray:none;stroke-dashoffset:0;stroke-opacity:1"
         d="M 63.871098,25.903987 A 37.967111,37.967111 0 0 0 25.903987,63.871098 37.967111,37.967111 0 0 0 37.188696,90.838781 C 53.859152,74.339388 74.245105,54.116909 91.005037,37.324726 A 37.967111,37.967111 0 0 0 63.871098,25.903987 Z"
         id="circle1018"
         inkscape:connector-curvature="0" />
    </g>
  </g>
</svg>
